X:97
T:Gan Ainm
R:Jig
S:Maire O'Keeffe, Kerry (fiddle)
D:Session tape - Milltown Malbay 1991
Z:Bernie Stocks
M:6/8
K:G
EAA ABc | BAG E2D | EGD EGD | EGD EFG |A3 ABc | BAG E2c | BAG AGE | GED D3 ::
f2d d^cd | e^cA A2f | ge^c def | ge^c d2e |~f2d e2d | ^cAA A2B | cAG AGE | GED D3 :|
<end>
<start>
